test_teplosystem/img/Youtube.svg

<svg width="28" height="28" viewBox="0 0 28 28" fill="none" xmlns="http://www.w3.org/2000/svg">
<g opacity="0.5">
<path fill-rule="evenodd" clip-rule="evenodd" d="M0 14C0 6.26801 6.26801 0 14 0C21.732 0 28 6.26801 28 14C28 21.732 21.732 28 14 28C6.26801 28 0 21.732 0 14ZM21.1546 10.5427C20.9829 9.88296 20.4768 9.36343 19.8343 9.18711C18.6698 8.86667 14 8.86667 14 8.86667C14 8.86667 9.33019 8.86667 8.16565 9.18711C7.52309 9.36343 7.01705 9.88296 6.84532 10.5427C6.53333 11.7384 6.53333 14.2333 6.53333 14.2333C6.53333 14.2333 6.53333 16.7281 6.84532 17.924C7.01705 18.5837 7.52309 19.1032 8.16565 19.2796C9.33019 19.6 14 19.6 14 19.6C14 19.6 18.6698 19.6 19.8343 19.2796C20.4768 19.1032 20.9829 18.5837 21.1546 17.924C21.4667 16.7281 21.4667 14.2333 21.4667 14.2333C21.4667 14.2333 21.4667 11.7384 21.1546 10.5427Z" fill="white"/>
<path fill-rule="evenodd" clip-rule="evenodd" d="M12.6001 16.8V12.1333L16.3334 14.4667L12.6001 16.8Z" fill="white"/>
</g>
</svg>

<svg width="28" height="28" fill="none" xmlns="http://www.w3.org/2000/svg"><g opacity=".5" fill-rule="evenodd" clip-rule="evenodd" fill="#fff"><path d="M0 14C0 6.268 6.268 0 14 0s14 6.268 14 14-6.268 14-14 14S0 21.732 0 14zm21.155-3.457a1.896 1.896 0 00-1.32-1.356C18.67 8.867 14 8.867 14 8.867s-4.67 0-5.834.32a1.896 1.896 0 00-1.32 1.356c-.313 1.195-.313 3.69-.313 3.69s0 2.495.312 3.691c.172.66.678 1.18 1.32 1.356C9.33 19.6 14 19.6 14 19.6s4.67 0 5.834-.32a1.896 1.896 0 001.32-1.356c.313-1.196.313-3.69.313-3.69s0-2.496-.312-3.691z"/><path d="M12.6 16.8v-4.667l3.733 2.334L12.6 16.8z"/></g></svg>
